src/assets/icons/adwaita/mimetypes/audio-x-generic.svg

<?xml version="1.0" encoding="UTF-8"?>
<svg height="128px" viewBox="0 0 128 128" width="128px" xmlns="http://www.w3.org/2000/svg" xmlns:xlink="http://www.w3.org/1999/xlink">
    <linearGradient id="audio_x_generic_a" gradientUnits="userSpaceOnUse" x1="50" x2="106" y1="30" y2="30">
        <stop offset="0" stop-color="#1a6842"/>
        <stop offset="0.123537" stop-color="#2dbd7d"/>
        <stop offset="0.267634" stop-color="#26a269"/>
        <stop offset="0.789903" stop-color="#26a269"/>
        <stop offset="0.864285" stop-color="#26a269"/>
        <stop offset="1" stop-color="#2dc47e"/>
    </linearGradient>
    <linearGradient id="audio_x_generic_b" gradientUnits="userSpaceOnUse">
        <stop offset="0" stop-color="#1a6842"/>
        <stop offset="0.123537" stop-color="#2dbd7d"/>
        <stop offset="0.267634" stop-color="#26a269"/>
        <stop offset="0.614059" stop-color="#26a269"/>
        <stop offset="0.864285" stop-color="#38f39d"/>
        <stop offset="1" stop-color="#2dc47e"/>
    </linearGradient>
    <linearGradient id="audio_x_generic_c" x1="115.819336" x2="66" xlink:href="#audio_x_generic_b" y1="92" y2="92"/>
    <linearGradient id="audio_x_generic_d" gradientUnits="userSpaceOnUse">
        <stop offset="0" stop-color="#38ec8b"/>
        <stop offset="1" stop-color="#33d17a"/>
    </linearGradient>
    <radialGradient id="audio_x_generic_e" cx="356.208099" cy="2453.477783" gradientTransform="matrix(0.732441 0.48694 -0.553636 0.832759 1185.43158 -2128.607574)" r="25.000025" xlink:href="#audio_x_generic_d"/>
    <linearGradient id="audio_x_generic_f" x1="49.819336" x2="0" xlink:href="#audio_x_generic_b" y1="92" y2="92"/>
    <radialGradient id="audio_x_generic_g" cx="290.12616" cy="2488.878906" gradientTransform="matrix(0.732441 0.48694 -0.553636 0.832759 1185.43158 -2128.607574)" r="25.000025" xlink:href="#audio_x_generic_d"/>
    <linearGradient id="audio_x_generic_h" gradientUnits="userSpaceOnUse">
        <stop offset="0" stop-color="#8ff0a4"/>
        <stop offset="1" stop-color="#8ff0a4" stop-opacity="0"/>
    </linearGradient>
    <radialGradient id="audio_x_generic_i" cx="312.657257" cy="2706.578613" gradientTransform="matrix(1.054787 0.0168857 -0.0144512 0.902714 -274.04842 -2365.468445)" r="14.806045" xlink:href="#audio_x_generic_h"/>
    <radialGradient id="audio_x_generic_j" cx="312.657257" cy="2706.578613" gradientTransform="matrix(1.054787 0.0168857 -0.0144512 0.902714 -204.515724 -2365.468445)" r="14.806045" xlink:href="#audio_x_generic_h"/>
    <path d="m 39.882812 36.007812 v 9.992188 h 10.117188 v -4 c 0 -5.523438 4.476562 -10 10 -10 h 30 c 5.523438 0 10 4.476562 10 10 v 4 h 16.117188 v -9.988281 c 0 -5.585938 -4.53125 -10.117188 -10.117188 -10.117188 h -6 v 0.105469 h -50 v -0.105469 c -5.585938 0 -10.113281 4.527344 -10.117188 10.113281 z m 0 0" fill="url(#audio_x_generic_a)" fill-rule="evenodd"/>
    <path d="m 33.882812 36.082031 v 41.058594 l 13.925782 12.828125 c 0.386718 0.351562 0.941406 0.445312 1.421875 0.234375 c 0.476562 -0.207031 0.785156 -0.679687 0.785156 -1.203125 v -50.988281 c 0 -5.527344 4.484375 -10.011719 10.015625 -10.011719 h 30.09375 c 5.4375 0 9.847656 4.410156 9.847656 9.847656 v 39.296875 l 15.945313 14.855469 h 0.082031 v -56.085938 c 0 -13.207031 -10.707031 -23.914062 -23.914062 -23.914062 h -34.117188 c -13.300781 0 -24.085938 10.78125 -24.085938 24.082031 z m 0 0" fill="#33d17a"/>
    <g fill-rule="evenodd">
        <path d="m 116 95 c 0 13.808594 -11.191406 25 -25 25 s -25 -11.191406 -25 -25 s 11.191406 -25 25 -25 s 25 11.191406 25 25 z m 0 0" fill="url(#audio_x_generic_c)"/>
        <path d="m 116 91 c 0 13.808594 -11.191406 25 -25 25 s -25 -11.191406 -25 -25 s 11.191406 -25 25 -25 s 25 11.191406 25 25 z m 0 0" fill="url(#audio_x_generic_e)"/>
        <path d="m 50 95 c 0 13.808594 -11.191406 25 -25 25 s -25 -11.191406 -25 -25 s 11.191406 -25 25 -25 s 25 11.191406 25 25 z m 0 0" fill="url(#audio_x_generic_f)"/>
        <path d="m 50 91 c 0 13.808594 -11.191406 25 -25 25 s -25 -11.191406 -25 -25 s 11.191406 -25 25 -25 s 25 11.191406 25 25 z m 0 0" fill="url(#audio_x_generic_g)"/>
    </g>
    <path d="m 32.804688 84.453125 c 0 8.175781 -6.628907 14.804687 -14.804688 14.804687 s -14.804688 -6.628906 -14.804688 -14.804687 s 6.628907 -14.804687 14.804688 -14.804687 s 14.804688 6.628906 14.804688 14.804687 z m 0 0" fill="url(#audio_x_generic_i)"/>
    <path d="m 102.339844 84.453125 c 0 8.175781 -6.628906 14.804687 -14.808594 14.804687 c -8.175781 0 -14.804688 -6.628906 -14.804688 -14.804687 s 6.628907 -14.804687 14.804688 -14.804687 c 8.179688 0 14.808594 6.628906 14.808594 14.804687 z m 0 0" fill="url(#audio_x_generic_j)"/>
</svg>

<svg xmlns="http://www.w3.org/2000/svg" xmlns:xlink="http://www.w3.org/1999/xlink" width="128" height="128" viewBox="0 0 128 128"><linearGradient id="audio_x_generic_d" x1="50" x2="106" y1="30" y2="30" gradientUnits="userSpaceOnUse"><stop offset="0" stop-color="#1a6842"/><stop offset=".124" stop-color="#2dbd7d"/><stop offset=".268" stop-color="#26a269"/><stop offset=".79" stop-color="#26a269"/><stop offset=".864" stop-color="#26a269"/><stop offset="1" stop-color="#2dc47e"/></linearGradient><linearGradient id="audio_x_generic_a" gradientUnits="userSpaceOnUse"><stop offset="0" stop-color="#1a6842"/><stop offset=".124" stop-color="#2dbd7d"/><stop offset=".268" stop-color="#26a269"/><stop offset=".614" stop-color="#26a269"/><stop offset=".864" stop-color="#38f39d"/><stop offset="1" stop-color="#2dc47e"/></linearGradient><linearGradient xlink:href="#audio_x_generic_a" id="audio_x_generic_e" x1="115.819" x2="66" y1="92" y2="92"/><linearGradient id="audio_x_generic_b" gradientUnits="userSpaceOnUse"><stop offset="0" stop-color="#38ec8b"/><stop offset="1" stop-color="#33d17a"/></linearGradient><radialGradient xlink:href="#audio_x_generic_b" id="audio_x_generic_f" cx="356.208" cy="2453.478" r="25" gradientTransform="rotate(33.617 4116.007 897.834)scale(.87953 1)"/><linearGradient xlink:href="#audio_x_generic_a" id="audio_x_generic_g" x1="49.819" x2="0" y1="92" y2="92"/><radialGradient xlink:href="#audio_x_generic_b" id="audio_x_generic_h" cx="290.126" cy="2488.879" r="25" gradientTransform="rotate(33.617 4116.007 897.834)scale(.87953 1)"/><linearGradient id="audio_x_generic_c" gradientUnits="userSpaceOnUse"><stop offset="0" stop-color="#8ff0a4"/><stop offset="1" stop-color="#8ff0a4" stop-opacity="0"/></linearGradient><radialGradient xlink:href="#audio_x_generic_c" id="audio_x_generic_i" cx="312.657" cy="2706.579" r="14.806" gradientTransform="rotate(.917 147634.668 -18302.64)scale(1.05492 .90283)"/><radialGradient xlink:href="#audio_x_generic_c" id="audio_x_generic_j" cx="312.657" cy="2706.579" r="14.806" gradientTransform="rotate(.917 147669.242 -13958.89)scale(1.05492 .90283)"/><path fill="url(#audio_x_generic_d)" fill-rule="evenodd" d="M39.883 36.008V46H50v-4c0-5.523 4.477-10 10-10h30c5.523 0 10 4.477 10 10v4h16.117v-9.988c0-5.586-4.531-10.117-10.117-10.117h-6V26H50v-.105c-5.586 0-10.113 4.527-10.117 10.113m0 0"/><path fill="#33d17a" d="M33.883 36.082v41.059l13.926 12.828a1.32 1.32 0 0 0 1.421.234A1.31 1.31 0 0 0 50.016 89V38.012C50.016 32.484 54.5 28 60.03 28h30.094c5.438 0 9.848 4.41 9.848 9.848v39.297L115.918 92H116V35.914C116 22.707 105.293 12 92.086 12H57.969c-13.301 0-24.086 10.781-24.086 24.082m0 0"/><g fill-rule="evenodd"><path fill="url(#audio_x_generic_e)" d="M116 95c0 13.809-11.191 25-25 25s-25-11.191-25-25 11.191-25 25-25 25 11.191 25 25m0 0"/><path fill="url(#audio_x_generic_f)" d="M116 91c0 13.809-11.191 25-25 25s-25-11.191-25-25 11.191-25 25-25 25 11.191 25 25m0 0"/><path fill="url(#audio_x_generic_g)" d="M50 95c0 13.809-11.191 25-25 25S0 108.809 0 95s11.191-25 25-25 25 11.191 25 25m0 0"/><path fill="url(#audio_x_generic_h)" d="M50 91c0 13.809-11.191 25-25 25S0 104.809 0 91s11.191-25 25-25 25 11.191 25 25m0 0"/></g><path fill="url(#audio_x_generic_i)" d="M32.805 84.453c0 8.176-6.63 14.805-14.805 14.805S3.195 92.628 3.195 84.453 9.825 69.648 18 69.648s14.805 6.63 14.805 14.805m0 0"/><path fill="url(#audio_x_generic_j)" d="M102.34 84.453c0 8.176-6.63 14.805-14.809 14.805-8.176 0-14.804-6.63-14.804-14.805s6.628-14.805 14.804-14.805c8.18 0 14.809 6.63 14.809 14.805m0 0"/></svg>
